static/images/navigation/company/typewriter.svg

<svg height="57.669" viewBox="0 0 53.947 57.669" width="53.947" xmlns="http://www.w3.org/2000/svg"><g fill="#414042"><path d="m2.6.821h-4.961a.931.931 0 0 1 -.929-.931.931.931 0 0 1 .929-.929h4.961a.931.931 0 0 1 .931.929.931.931 0 0 1 -.931.931" transform="translate(23.132 41.965)"/><path d="m2.6.821h-4.961a.93.93 0 0 1 -.929-.931.93.93 0 0 1 .929-.929h4.961a.931.931 0 0 1 .931.929.931.931 0 0 1 -.931.931" transform="translate(30.573 41.965)"/><path d="m2.6.821h-4.961a.93.93 0 0 1 -.929-.931.93.93 0 0 1 .929-.929h4.961a.931.931 0 0 1 .931.929.931.931 0 0 1 -.931.931" transform="translate(38.014 41.965)"/><path d="m6.981.821h-14.881a.931.931 0 0 1 -.932-.931.931.931 0 0 1 .932-.929h14.881a.931.931 0 0 1 .931.929.931.931 0 0 1 -.931.931" transform="translate(27.433 50.647)"/><path d="m2.6.821h-4.961a.93.93 0 0 1 -.929-.931.93.93 0 0 1 .929-.929h4.961a.931.931 0 0 1 .931.929.931.931 0 0 1 -.931.931" transform="translate(19.412 45.686)"/><path d="m2.6.821h-4.961a.93.93 0 0 1 -.929-.931.93.93 0 0 1 .929-.929h4.961a.931.931 0 0 1 .931.929.931.931 0 0 1 -.931.931" transform="translate(15.691 41.965)"/><path d="m2.6.821h-4.961a.93.93 0 0 1 -.929-.931.93.93 0 0 1 .929-.929h4.961a.931.931 0 0 1 .931.929.931.931 0 0 1 -.931.931" transform="translate(26.853 45.686)"/><path d="m2.6.821h-4.961a.931.931 0 0 1 -.929-.931.931.931 0 0 1 .929-.929h4.961a.931.931 0 0 1 .931.929.931.931 0 0 1 -.931.931" transform="translate(34.294 45.686)"/><path d="m22.311 11.771h-47.126a3.413 3.413 0 0 1 -3.411-3.411v-3.21a3.375 3.375 0 0 1 .272-1.336c1.16-2.707 7.172-17.963 7.233-18.117a.928.928 0 0 1 .865-.589h8.682a.926.926 0 0 1 .591.211 14.4 14.4 0 0 0 9.33 3.509 14.41 14.41 0 0 0 9.332-3.509.926.926 0 0 1 .591-.211h8.68a.935.935 0 0 1 .868.593c.054.14 6.059 15.378 7.232 18.114a3.375 3.375 0 0 1 .272 1.336v3.209a3.413 3.413 0 0 1 -3.411 3.411m-41.533-24.8c-1.137 2.884-5.969 15.12-7.022 17.578a1.5 1.5 0 0 0 -.122.6v3.211a1.551 1.551 0 0 0 1.551 1.551h47.126a1.551 1.551 0 0 0 1.55-1.551v-3.21a1.5 1.5 0 0 0 -.122-.6c-.492-1.15-1.863-4.56-4.075-10.13-1.672-4.215-2.514-6.335-2.9-7.452h-7.764a16.091 16.091 0 0 1 -10.253 3.721 16.081 16.081 0 0 1 -10.252-3.721z" transform="translate(28.226 45.898)"/><path d="m9.171.821h-19.844a.93.93 0 0 1 -.927-.931.93.93 0 0 1 .929-.929h19.842a.931.931 0 0 1 .929.929.931.931 0 0 1 -.931.931" transform="translate(27.724 9.721)"/><path d="m9.171.821h-19.844a.93.93 0 0 1 -.927-.931.93.93 0 0 1 .929-.929h19.842a.931.931 0 0 1 .929.929.931.931 0 0 1 -.931.931" transform="translate(27.724 14.681)"/><path d="m4.791.821h-9.921a.931.931 0 0 1 -.931-.931.931.931 0 0 1 .931-.929h9.921a.931.931 0 0 1 .931.929.931.931 0 0 1 -.931.931" transform="translate(22.182 19.642)"/><path d="m1.506 4.106h-1.241a.93.93 0 0 1 0-1.86h1.241c.816 0 1.551-.213 1.551-2.791s-.735-2.79-1.551-2.79h-2.48a.931.931 0 0 1 -.926-.931.931.931 0 0 1 .931-.929h2.48c3.411 0 3.411 3.5 3.411 4.65s0 4.652-3.411 4.652" transform="translate(47.79 27.519)"/><path d="m2.054 4.106h-1.241c-3.413 0-3.413-3.5-3.413-4.651s0-4.65 3.411-4.65h2.483a.93.93 0 0 1 .929.929.93.93 0 0 1 -.929.931h-2.481c-.813 0-1.551.213-1.551 2.79s.738 2.791 1.551 2.791h1.241a.93.93 0 1 1 0 1.86" transform="translate(3.837 27.519)"/><path d="m15.741 11.224a.931.931 0 0 1 -.931-.931v-22.633h-32.864v22.633a.931.931 0 0 1 -.931.931.93.93 0 0 1 -.929-.931v-23.562a.93.93 0 0 1 .929-.931h34.726a.931.931 0 0 1 .931.931v23.562a.931.931 0 0 1 -.931.931" transform="translate(28.595 14.2)"/><path d="m17.931.821h-39.685a.931.931 0 0 1 -.931-.931.931.931 0 0 1 .931-.929h39.685a.931.931 0 0 1 .931.929.931.931 0 0 1 -.931.931" transform="translate(28.885 27.083)"/></g></svg>

<?xml version="1.0" encoding="UTF-8"?>
<svg xmlns="http://www.w3.org/2000/svg" width="53.947" height="57.669" viewBox="0 0 53.947 57.669">
  <g id="Group_1323" data-name="Group 1323" transform="translate(-2912.001 243.792)">
    <g id="Group_1110" data-name="Group 1110" transform="translate(2931.843 -202.866)">
      <path id="Path_2448" data-name="Path 2448" d="M2.6.821H-2.361A.931.931,0,0,1-3.29-.11a.931.931,0,0,1,.929-.929H2.6a.931.931,0,0,1,.931.929A.931.931,0,0,1,2.6.821" transform="translate(3.29 1.039)" fill="#414042"></path>
    </g>
    <g id="Group_1111" data-name="Group 1111" transform="translate(2939.284 -202.866)">
      <path id="Path_2449" data-name="Path 2449" d="M2.6.821H-2.361A.93.93,0,0,1-3.29-.11a.93.93,0,0,1,.929-.929H2.6a.931.931,0,0,1,.931.929A.931.931,0,0,1,2.6.821" transform="translate(3.29 1.039)" fill="#414042"></path>
    </g>
    <g id="Group_1112" data-name="Group 1112" transform="translate(2946.725 -202.866)">
      <path id="Path_2450" data-name="Path 2450" d="M2.6.821H-2.361A.93.93,0,0,1-3.29-.11a.93.93,0,0,1,.929-.929H2.6a.931.931,0,0,1,.931.929A.931.931,0,0,1,2.6.821" transform="translate(3.29 1.039)" fill="#414042"></path>
    </g>
    <g id="Group_1113" data-name="Group 1113" transform="translate(2930.602 -194.184)">
      <path id="Path_2451" data-name="Path 2451" d="M6.981.821H-7.9A.931.931,0,0,1-8.832-.11.931.931,0,0,1-7.9-1.039H6.981a.931.931,0,0,1,.931.929.931.931,0,0,1-.931.931" transform="translate(8.832 1.039)" fill="#414042"></path>
    </g>
    <g id="Group_1114" data-name="Group 1114" transform="translate(2928.123 -199.145)">
      <path id="Path_2452" data-name="Path 2452" d="M2.6.821H-2.361A.93.93,0,0,1-3.29-.11a.93.93,0,0,1,.929-.929H2.6a.931.931,0,0,1,.931.929A.931.931,0,0,1,2.6.821" transform="translate(3.29 1.039)" fill="#414042"></path>
    </g>
    <g id="Group_1115" data-name="Group 1115" transform="translate(2924.402 -202.866)">
      <path id="Path_2453" data-name="Path 2453" d="M2.6.821H-2.361A.93.93,0,0,1-3.29-.11a.93.93,0,0,1,.929-.929H2.6a.931.931,0,0,1,.931.929A.931.931,0,0,1,2.6.821" transform="translate(3.29 1.039)" fill="#414042"></path>
    </g>
    <g id="Group_1116" data-name="Group 1116" transform="translate(2935.564 -199.145)">
      <path id="Path_2454" data-name="Path 2454" d="M2.6.821H-2.361A.93.93,0,0,1-3.29-.11a.93.93,0,0,1,.929-.929H2.6a.931.931,0,0,1,.931.929A.931.931,0,0,1,2.6.821" transform="translate(3.29 1.039)" fill="#414042"></path>
    </g>
    <g id="Group_1117" data-name="Group 1117" transform="translate(2943.005 -199.145)">
      <path id="Path_2455" data-name="Path 2455" d="M2.6.821H-2.361A.931.931,0,0,1-3.29-.11a.931.931,0,0,1,.929-.929H2.6a.931.931,0,0,1,.931.929A.931.931,0,0,1,2.6.821" transform="translate(3.29 1.039)" fill="#414042"></path>
    </g>
    <g id="Group_1118" data-name="Group 1118" transform="translate(2912.001 -212.786)">
      <path id="Path_2456" data-name="Path 2456" d="M22.311,11.771H-24.815A3.413,3.413,0,0,1-28.226,8.36V5.15a3.375,3.375,0,0,1,.272-1.336c1.16-2.707,7.172-17.963,7.233-18.117a.928.928,0,0,1,.865-.589h8.682a.926.926,0,0,1,.591.211,14.4,14.4,0,0,0,9.33,3.509,14.41,14.41,0,0,0,9.332-3.509.926.926,0,0,1,.591-.211h8.68a.935.935,0,0,1,.868.593c.054.14,6.059,15.378,7.232,18.114a3.375,3.375,0,0,1,.272,1.336V8.36a3.413,3.413,0,0,1-3.411,3.411m-41.533-24.8c-1.137,2.884-5.969,15.12-7.022,17.578a1.5,1.5,0,0,0-.122.6V8.36a1.551,1.551,0,0,0,1.551,1.551H22.311A1.551,1.551,0,0,0,23.861,8.36V5.15a1.5,1.5,0,0,0-.122-.6C23.247,3.4,21.876-.01,19.664-5.58c-1.672-4.215-2.514-6.335-2.9-7.452H9A16.091,16.091,0,0,1-1.253-9.311a16.081,16.081,0,0,1-10.252-3.721Z" transform="translate(28.226 14.892)" fill="#414042"></path>
    </g>
    <g id="Group_1119" data-name="Group 1119" transform="translate(2928.123 -235.11)">
      <path id="Path_2457" data-name="Path 2457" d="M9.171.821H-10.673A.93.93,0,0,1-11.6-.11a.93.93,0,0,1,.929-.929H9.171A.931.931,0,0,1,10.1-.11a.931.931,0,0,1-.931.931" transform="translate(11.602 1.039)" fill="#414042"></path>
    </g>
    <g id="Group_1120" data-name="Group 1120" transform="translate(2928.123 -230.15)">
      <path id="Path_2458" data-name="Path 2458" d="M9.171.821H-10.673A.93.93,0,0,1-11.6-.11a.93.93,0,0,1,.929-.929H9.171A.931.931,0,0,1,10.1-.11a.931.931,0,0,1-.931.931" transform="translate(11.602 1.039)" fill="#414042"></path>
    </g>
    <g id="Group_1121" data-name="Group 1121" transform="translate(2928.122 -225.189)">
      <path id="Path_2459" data-name="Path 2459" d="M4.791.821H-5.13A.931.931,0,0,1-6.061-.11a.931.931,0,0,1,.931-.929H4.791a.931.931,0,0,1,.931.929.931.931,0,0,1-.931.931" transform="translate(6.061 1.039)" fill="#414042"></path>
    </g>
    <g id="Group_1122" data-name="Group 1122" transform="translate(2957.886 -221.468)">
      <path id="Path_2460" data-name="Path 2460" d="M1.506,4.106H.265a.93.93,0,0,1,0-1.86H1.506c.816,0,1.551-.213,1.551-2.791S2.322-3.335,1.506-3.335H-.974A.931.931,0,0,1-1.9-4.266a.931.931,0,0,1,.931-.929h2.48c3.411,0,3.411,3.5,3.411,4.65s0,4.652-3.411,4.652" transform="translate(1.905 5.195)" fill="#414042"></path>
    </g>
    <g id="Group_1123" data-name="Group 1123" transform="translate(2913.24 -221.468)">
      <path id="Path_2461" data-name="Path 2461" d="M2.054,4.106H.813C-2.6,4.106-2.6.606-2.6-.545s0-4.65,3.411-4.65H3.294a.93.93,0,0,1,.929.929.93.93,0,0,1-.929.931H.813C0-3.335-.738-3.122-.738-.545S0,2.246.813,2.246H2.054a.93.93,0,1,1,0,1.86" transform="translate(2.598 5.195)" fill="#414042"></path>
    </g>
    <g id="Group_1124" data-name="Group 1124" transform="translate(2920.682 -243.792)">
      <path id="Path_2462" data-name="Path 2462" d="M15.741,11.224a.931.931,0,0,1-.931-.931V-12.34H-18.054V10.293a.931.931,0,0,1-.931.931.93.93,0,0,1-.929-.931V-13.269a.93.93,0,0,1,.929-.931H15.741a.931.931,0,0,1,.931.931V10.293a.931.931,0,0,1-.931.931" transform="translate(19.914 14.2)" fill="#414042"></path>
    </g>
    <g id="Group_1125" data-name="Group 1125" transform="translate(2918.201 -217.748)">
      <path id="Path_2463" data-name="Path 2463" d="M17.931.821H-21.754a.931.931,0,0,1-.931-.931.931.931,0,0,1,.931-.929H17.931a.931.931,0,0,1,.931.929.931.931,0,0,1-.931.931" transform="translate(22.685 1.039)" fill="#414042"></path>
    </g>
  </g>
</svg>
